X: 1696
T: The Friendly Visit
M:4/4
L:1/8
B:O'Neill's 1696
N:"collected by Dollard"
K:G
B>A \
| (3GFG D>GB>GB>d | (3cBcA>Bc>de>f | g2d>fe>cA>G | F>GA>B c>AF>D |
| (3GFG D>G B>GB>d | (3cBcA>Bc>de>f | g>dB>G F>Ad>c | B2G2G2 :|
| (3GBd \
| g2d>B G>Bd>g | e2A>FD>FA>g | f2 e>dc>de>g | (3fgf (3efe d>cB>A |
| (3GFG D>G B>GB>d | (3cBcA>Bc>de>f | g>dB>G F>Ad>c | B2G2G2 :|


